lib/svg/bell.svg

<svg xmlns="http://www.w3.org/2000/svg" width="14" height="16" viewBox="0 0 14 16"><path d="M14 12v1H0v-1l.73-.58c.77-.77.81-2.55 1.19-4.42C2.69 3.23 6 2 6 2c0-.55.45-1 1-1s1 .45 1 1c0 0 3.39 1.23 4.16 5 .38 1.88.42 3.66 1.19 4.42l.66.58H14zm-7 4c1.11 0 2-.89 2-2H5c0 1.11.89 2 2 2z"/></svg>

<?xml version="1.0" encoding="UTF-8" standalone="no"?>
<svg width="14px" height="16px" viewBox="0 0 14 16" version="1.1" xmlns="http://www.w3.org/2000/svg" xmlns:xlink="http://www.w3.org/1999/xlink">
    <!-- Generator: Sketch 3.8.3 (29802) - http://www.bohemiancoding.com/sketch -->
    <title>bell</title>
    <desc>Created with Sketch.</desc>
    <defs></defs>
    <g id="Octicons" stroke="none" stroke-width="1" fill="none" fill-rule="evenodd">
        <g id="bell" fill="#000000">
            <path d="M14,12 L14,13 L0,13 L0,12 L0.73,11.42 C1.5,10.65 1.54,8.87 1.92,7 C2.69,3.23 6,2 6,2 C6,1.45 6.45,1 7,1 C7.55,1 8,1.45 8,2 C8,2 11.39,3.23 12.16,7 C12.54,8.88 12.58,10.66 13.35,11.42 L14.01,12 L14,12 Z M7,16 C8.11,16 9,15.11 9,14 L5,14 C5,15.11 5.89,16 7,16 L7,16 Z" id="Shape"></path>
        </g>
    </g>
</svg>
